icons/modus-outlined/wifi-off.svg

<svg xmlns="http://www.w3.org/2000/svg" width="24" height="24" fill="currentColor" viewBox="0 0 24 24">
  <path d="M3.53434 2.49843C3.66519 2.49843 3.79546 2.52338 3.91637 2.57343C4.03733 2.62353 4.14722 2.69764 4.23981 2.79023L15.5894 14.1398L21.1699 19.7004C21.2625 19.7929 21.3365 19.9029 21.3867 20.0238C21.4367 20.1445 21.4628 20.274 21.4629 20.4047C21.4629 20.5356 21.4369 20.6658 21.3867 20.7867C21.3365 20.9077 21.2626 21.0176 21.1699 21.1101C20.9699 21.3001 20.7197 21.3996 20.4597 21.3996C20.1998 21.3996 19.9495 21.3101 19.7496 21.1101L11.7902 13.1496C10.4142 13.1832 9.07838 13.6224 7.94996 14.4105C7.37001 14.8204 6.59014 14.7897 6.0902 14.2898C5.4802 13.6898 5.53027 12.6705 6.22027 12.1805C7.17027 11.4905 8.2299 10.9998 9.31988 10.6898L7.10973 8.47968C5.98974 8.93968 4.9198 9.56992 3.9398 10.3699C3.67071 10.594 3.32749 10.7088 2.9777 10.6922C2.6278 10.6755 2.29623 10.5284 2.04957 10.2797C1.46989 9.68964 1.50984 8.69959 2.15973 8.17968C3.04971 7.4597 3.99983 6.85975 4.98981 6.35976L2.83004 4.19999C2.73746 4.10741 2.66335 3.99752 2.61324 3.87655C2.56318 3.75564 2.53824 3.62539 2.53824 3.49452C2.5383 3.36388 2.5633 3.23438 2.61324 3.11366C2.66334 2.99272 2.73748 2.8828 2.83004 2.79023C2.92262 2.69764 3.03251 2.62353 3.15348 2.57343C3.2742 2.52347 3.40369 2.4985 3.53434 2.49843Z"/>
  <path d="M10.4601 15.6105C11.3101 14.7605 12.6898 14.7605 13.5398 15.6105C14.3895 16.4606 14.3897 17.8403 13.5398 18.6902C12.6899 19.5401 11.3101 19.5399 10.4601 18.6902C9.61014 17.8402 9.61018 16.4605 10.4601 15.6105Z"/>
  <path d="M15.0996 10.8305C16.0593 11.142 16.9563 11.5972 17.7796 12.1805C18.3396 12.5804 18.4704 13.3202 18.1804 13.9101L15.0996 10.8305Z"/>
  <path d="M9.22027 4.93944C13.5901 4.14961 18.2203 5.23033 21.8402 8.19023C22.4799 8.72024 22.5295 9.70967 21.9398 10.2996C21.4199 10.8095 20.6102 10.8501 20.0402 10.3805C17.6603 8.43051 14.73 7.49051 11.8101 7.53046L9.22027 4.93944Z"/>
</svg>

<svg xmlns="http://www.w3.org/2000/svg" width="24" height="24" fill="currentColor" viewBox="0 0 24 24">
  <path d="M3.534 2.498a1 1 0 0 1 .706.292l11.35 11.35 5.58 5.56a1 1 0 0 1 .217 1.087 1 1 0 0 1-.217.323c-.2.19-.45.29-.71.29s-.51-.09-.71-.29l-7.96-7.96a7 7 0 0 0-3.84 1.26c-.58.41-1.36.38-1.86-.12-.61-.6-.56-1.62.13-2.11.95-.69 2.01-1.18 3.1-1.49L7.11 8.48a12.6 12.6 0 0 0-3.17 1.89 1.4 1.4 0 0 1-1.89-.09c-.58-.59-.54-1.58.11-2.1.89-.72 1.84-1.32 2.83-1.82L2.83 4.2a1 1 0 0 1-.217-1.086 1 1 0 0 1 .921-.616"/>
  <path d="M10.46 15.61a2.178 2.178 0 1 1 3.08 3.082 2.178 2.178 0 0 1-3.08-3.081M15.1 10.83c.96.312 1.856.767 2.68 1.35.56.4.69 1.14.4 1.73zM9.22 4.94c4.37-.79 9 .29 12.62 3.25.64.53.69 1.52.1 2.11-.52.51-1.33.55-1.9.08-2.38-1.95-5.31-2.89-8.23-2.85z"/>
</svg>
